packages/nodes-base/nodes/Transform/RemoveDuplicates/removeDuplicates.svg

<svg xmlns="http://www.w3.org/2000/svg" width="512" height="512" fill="none"><g fill="#54B8C9" clip-path="url(#a)"><path d="M134.097 111h38.829v32.508H138.16v34.635h-32.508v-38.699c0-15.709 12.735-28.444 28.445-28.444m77.658 32.508V111h77.657v32.508zm116.486 0V111h77.658v32.508zm116.487 0V111h38.829c15.71 0 28.445 12.735 28.445 28.444v38.699h-32.508v-34.635zm34.766 73.238h32.508v38.698c0 15.71-12.735 28.445-28.445 28.445h-38.829v-32.508h34.766zM0 244.537C0 229.329 12.735 217 28.444 217h349.461c15.709 0 28.444 12.329 28.444 27.537v129.815c0 15.208-12.735 27.537-28.444 27.537H28.445C12.734 401.889 0 389.56 0 374.352z"/></g><defs><clipPath id="a"><path fill="#fff" d="M0 0h512v512H0z"/></clipPath></defs></svg>

<svg width="512" height="512" viewBox="0 0 512 512" fill="none" xmlns="http://www.w3.org/2000/svg">
<g clip-path="url(#clip0_1156_1098)">
<path d="M134.097 111H172.926V143.508H138.16V178.143H105.652V139.444C105.652 123.735 118.387 111 134.097 111Z" fill="#54B8C9"/>
<path d="M211.755 143.508V111H289.412V143.508H211.755Z" fill="#54B8C9"/>
<path d="M328.241 143.508V111H405.899V143.508H328.241Z" fill="#54B8C9"/>
<path d="M444.728 143.508V111H483.557C499.267 111 512.002 123.735 512.002 139.444V178.143H479.494V143.508H444.728Z" fill="#54B8C9"/>
<path d="M479.494 216.746H512.002V255.444C512.002 271.154 499.267 283.889 483.557 283.889H444.728V251.381H479.494V216.746Z" fill="#54B8C9"/>
<path d="M0 244.537C0 229.329 12.735 217 28.4444 217H377.905C393.614 217 406.349 229.329 406.349 244.537V374.352C406.349 389.56 393.614 401.889 377.905 401.889H28.4444C12.735 401.889 0 389.56 0 374.352V244.537Z" fill="#54B8C9"/>
</g>
<defs>
<clipPath id="clip0_1156_1098">
<rect width="512" height="512" fill="white"/>
</clipPath>
</defs>
</svg>
